fs/video_person_24_filled.svg

<svg viewBox="0 0 24 24" fill="none" xmlns="http://www.w3.org/2000/svg" height="1em" width="1em">
  <path d="M19.7454 4C20.988 4 21.9954 5.00736 21.9954 6.25V17.7546C21.9954 18.9972 20.988 20.0046 19.7454 20.0046H4.25C3.00736 20.0046 2 18.9972 2 17.7546V6.25C2 5.00736 3.00736 4 4.25 4H19.7454ZM19.7454 5.5H4.25C3.83579 5.5 3.5 5.83579 3.5 6.25V17.7546C3.5 18.1688 3.83579 18.5046 4.25 18.5046L6.999 18.504L7 15.75C7 14.8318 7.70711 14.0788 8.60647 14.0058L8.75 14H15.2447C16.1629 14 16.9159 14.7071 16.9889 15.6065L16.9947 15.75L16.994 18.504L19.7454 18.5046C20.1596 18.5046 20.4954 18.1688 20.4954 17.7546V6.25C20.4954 5.83579 20.1596 5.5 19.7454 5.5ZM12 7.00046C13.6569 7.00046 15 8.34361 15 10.0005C15 11.6573 13.6569 13.0005 12 13.0005C10.3431 13.0005 9 11.6573 9 10.0005C9 8.34361 10.3431 7.00046 12 7.00046Z" fill="#212121"/>
</svg>

<svg viewBox="0 0 24 24" fill="none" xmlns="http://www.w3.org/2000/svg" height="1em" width="1em">
  <path d="M19.745 4a2.25 2.25 0 0 1 2.25 2.25v11.505a2.25 2.25 0 0 1-2.25 2.25H4.25A2.25 2.25 0 0 1 2 17.755V6.25A2.25 2.25 0 0 1 4.25 4h15.495Zm0 1.5H4.25a.75.75 0 0 0-.75.75v11.505c0 .414.336.75.75.75l2.749-.001L7 15.75a1.75 1.75 0 0 1 1.606-1.744L8.75 14h6.495a1.75 1.75 0 0 1 1.744 1.607l.006.143-.001 2.754h2.751a.75.75 0 0 0 .75-.75V6.25a.75.75 0 0 0-.75-.75ZM12 7a3 3 0 1 1 0 6 3 3 0 0 1 0-6Z" fill="#212121"/>
</svg>
